public/icons/sound.svg

<svg width="64" height="64" viewBox="0 0 64 64" fill="none" xmlns="http://www.w3.org/2000/svg">
<path d="M5.3 55.9058L13.417 61.8058C13.5879 61.9301 13.7937 61.997 14.005 61.997C14.2163 61.997 14.4221 61.9301 14.593 61.8058L22.71 55.9058C23.7283 55.1621 24.5569 54.1887 25.1285 53.0647C25.7001 51.9408 25.9987 50.6978 26 49.4368V38.0008C26 37.7356 25.8946 37.4813 25.7071 37.2937C25.5196 37.1062 25.2652 37.0008 25 37.0008C20.453 37.0008 14.7 32.2778 14.638 32.2298C14.458 32.0825 14.2326 32.002 14 32.002C13.7674 32.002 13.542 32.0825 13.362 32.2298C13.305 32.2778 7.547 37.0008 3 37.0008C2.73478 37.0008 2.48043 37.1062 2.29289 37.2937C2.10536 37.4813 2 37.7356 2 38.0008V49.4368C2.00244 50.6987 2.30255 51.9422 2.87596 53.0662C3.44936 54.1903 4.27987 55.1631 5.3 55.9058ZM4 38.9438C8.076 38.4938 12.4 35.4878 14 34.2718C15.6 35.4878 19.924 38.4938 24 38.9438V49.4368C23.9985 50.3829 23.774 51.3153 23.3446 52.1583C22.9153 53.0013 22.2933 53.7312 21.529 54.2888L14 59.7648L6.471 54.2888C5.70674 53.7312 5.0847 53.0013 4.65537 52.1583C4.22604 51.3153 4.00151 50.3829 4 49.4368V38.9438Z" fill="#FBFBFB"/>
<path d="M10.7064 47.2924C10.5178 47.1103 10.2652 47.0095 10.003 47.0118C9.74083 47.014 9.49002 47.1192 9.30461 47.3046C9.1192 47.49 9.01403 47.7408 9.01176 48.003C9.00948 48.2652 9.11027 48.5178 9.29243 48.7064L12.2924 51.7064C12.48 51.8939 12.7343 51.9992 12.9994 51.9992C13.2646 51.9992 13.5189 51.8939 13.7064 51.7064L22.7064 42.7064C22.8886 42.5178 22.9894 42.2652 22.9871 42.003C22.9848 41.7408 22.8797 41.49 22.6942 41.3046C22.5088 41.1192 22.258 41.014 21.9958 41.0118C21.7336 41.0095 21.481 41.1103 21.2924 41.2924L12.9994 49.5854L10.7064 47.2924Z" fill="#FBFBFB"/>
<path d="M14.0006 56C16.3868 55.9974 18.6744 55.0483 20.3617 53.361C22.0489 51.6738 22.998 49.3861 23.0006 47C23.0006 46.7348 22.8953 46.4804 22.7077 46.2929C22.5202 46.1054 22.2658 46 22.0006 46C21.7354 46 21.481 46.1054 21.2935 46.2929C21.106 46.4804 21.0006 46.7348 21.0006 47C21.0002 48.5409 20.4914 50.0385 19.5531 51.2608C18.6148 52.483 17.2995 53.3615 15.811 53.76C14.3226 54.1585 12.7443 54.0548 11.3208 53.4649C9.89731 52.875 8.70824 51.8319 7.93798 50.4974C7.16773 49.1629 6.85932 47.6115 7.06059 46.0838C7.26186 44.5562 7.96157 43.1376 9.05119 42.0481C10.1408 40.9586 11.5595 40.2591 13.0872 40.058C14.6148 39.857 16.1662 40.1656 17.5006 40.936C17.7296 41.0592 17.9975 41.0884 18.2476 41.0174C18.4977 40.9464 18.7103 40.7808 18.8404 40.5556C18.9705 40.3305 19.0077 40.0636 18.9443 39.8114C18.8809 39.5593 18.7217 39.3418 18.5006 39.205C17.3051 38.515 15.9668 38.1093 14.5894 38.0192C13.212 37.9291 11.8323 38.157 10.557 38.6854C9.2818 39.2138 8.14518 40.0284 7.23509 41.0662C6.325 42.1041 5.66584 43.3374 5.30859 44.6707C4.95134 46.0041 4.90558 47.4017 5.17484 48.7556C5.44409 50.1094 6.02116 51.3832 6.8614 52.4784C7.70164 53.5735 8.78253 54.4608 10.0205 55.0714C11.2584 55.6821 12.6202 55.9998 14.0006 56Z" fill="#FBFBFB"/>
<path d="M3 18H8.72L8.22 20H6C5.73478 20 5.48043 20.1054 5.29289 20.2929C5.10536 20.4804 5 20.7348 5 21V25C5 25.2652 5.10536 25.5196 5.29289 25.7071C5.48043 25.8946 5.73478 26 6 26H20C20.2652 26 20.5196 25.8946 20.7071 25.7071C20.8946 25.5196 21 25.2652 21 25V21C21 20.7348 20.8946 20.4804 20.7071 20.2929C20.5196 20.1054 20.2652 20 20 20H17.78L17.28 18H23C23.2652 18 23.5196 17.8946 23.7071 17.7071C23.8946 17.5196 24 17.2652 24 17V3C24 2.73478 23.8946 2.48043 23.7071 2.29289C23.5196 2.10536 23.2652 2 23 2H3C2.73478 2 2.48043 2.10536 2.29289 2.29289C2.10536 2.48043 2 2.73478 2 3V17C2 17.2652 2.10536 17.5196 2.29289 17.7071C2.48043 17.8946 2.73478 18 3 18ZM19 24H7V22H19V24ZM15.72 20H10.28L10.78 18H15.22L15.72 20ZM4 4H22V16H4V4Z" fill="#FBFBFB"/>
<path d="M16.383 6.07612C16.2002 6.00041 15.9991 5.98062 15.8051 6.01925C15.6111 6.05787 15.4328 6.15318 15.293 6.29312L13 8.58612L10.707 6.29312C10.5671 6.15331 10.389 6.0581 10.195 6.01953C10.0011 5.98096 9.80005 6.00077 9.61735 6.07644C9.43465 6.15211 9.27848 6.28025 9.1686 6.44466C9.05871 6.60907 9.00004 6.80237 9 7.00012V13.0001C9 13.2653 9.10536 13.5197 9.29289 13.7072C9.48043 13.8948 9.73478 14.0001 10 14.0001C10.2652 14.0001 10.5196 13.8948 10.7071 13.7072C10.8946 13.5197 11 13.2653 11 13.0001V9.41412L12.293 10.7071C12.4805 10.8946 12.7348 10.9999 13 10.9999C13.2652 10.9999 13.5195 10.8946 13.707 10.7071L15 9.41412V13.0001C15 13.2653 15.1054 13.5197 15.2929 13.7072C15.4804 13.8948 15.7348 14.0001 16 14.0001C16.2652 14.0001 16.5196 13.8948 16.7071 13.7072C16.8946 13.5197 17 13.2653 17 13.0001V7.00012C17 6.80235 16.9415 6.60901 16.8316 6.44454C16.7218 6.28007 16.5657 6.15186 16.383 6.07612Z" fill="#FBFBFB"/>
<path d="M43 6H27C26.7348 6 26.4804 6.10536 26.2929 6.29289C26.1054 6.48043 26 6.73478 26 7C26 7.26522 26.1054 7.51957 26.2929 7.70711C26.4804 7.89464 26.7348 8 27 8H42V10.586L40.707 9.293C40.5184 9.11084 40.2658 9.01005 40.0036 9.01233C39.7414 9.0146 39.4906 9.11977 39.3052 9.30518C39.1198 9.49059 39.0146 9.7414 39.0123 10.0036C39.01 10.2658 39.1108 10.5184 39.293 10.707L42.293 13.707C42.4805 13.8945 42.7348 13.9998 43 13.9998C43.2652 13.9998 43.5195 13.8945 43.707 13.707L46.707 10.707C46.8892 10.5184 46.99 10.2658 46.9877 10.0036C46.9854 9.7414 46.8802 9.49059 46.6948 9.30518C46.5094 9.11977 46.2586 9.0146 45.9964 9.01233C45.7342 9.01005 45.4816 9.11084 45.293 9.293L44 10.586V7C44 6.73478 43.8946 6.48043 43.7071 6.29289C43.5196 6.10536 43.2652 6 43 6Z" fill="#FBFBFB"/>
<path d="M42.9998 52V46C42.9998 45.7348 42.8944 45.4804 42.7069 45.2929C42.5194 45.1054 42.265 45 41.9998 45C41.7346 45 41.4802 45.1054 41.2927 45.2929C41.1051 45.4804 40.9998 45.7348 40.9998 46V51H31.4138L32.7068 49.707C32.8889 49.5184 32.9897 49.2658 32.9875 49.0036C32.9852 48.7414 32.88 48.4906 32.6946 48.3052C32.5092 48.1198 32.2584 48.0146 31.9962 48.0123C31.734 48.01 31.4814 48.1108 31.2928 48.293L28.2928 51.293C28.1053 51.4805 28 51.7348 28 52C28 52.2652 28.1053 52.5195 28.2928 52.707L31.2928 55.707C31.4814 55.8892 31.734 55.99 31.9962 55.9877C32.2584 55.9854 32.5092 55.8802 32.6946 55.6948C32.88 55.5094 32.9852 55.2586 32.9875 54.9964C32.9897 54.7342 32.8889 54.4816 32.7068 54.293L31.4138 53H41.9998C42.265 53 42.5194 52.8946 42.7069 52.7071C42.8944 52.5196 42.9998 52.2652 42.9998 52Z" fill="#FBFBFB"/>
<path d="M57 33H55V32C56.2962 31.9965 57.5404 31.4898 58.4702 30.5866C59.4 29.6835 59.9428 28.4546 59.984 27.159C59.984 27.143 59.984 27.128 59.984 27.112C59.984 27.074 59.995 27.038 59.995 27V22C59.9934 20.4092 59.3608 18.884 58.2359 17.7591C57.111 16.6342 55.5858 16.0016 53.995 16H45C44.4696 16 43.9609 16.2107 43.5858 16.5858C43.2107 16.9609 43 17.4696 43 18C43.0016 19.5908 43.6342 21.116 44.7591 22.2409C45.884 23.3658 47.4092 23.9984 49 24H55.5L57.97 27.293C57.899 28.0323 57.5558 28.7188 57.0069 29.2191C56.458 29.7193 55.7427 29.9977 55 30H49C48.2044 30 47.4413 29.6839 46.8787 29.1213C46.3161 28.5587 46 27.7956 46 27V25C46 24.7348 45.8946 24.4804 45.7071 24.2929C45.5196 24.1054 45.2652 24 45 24C44.7348 24 44.4804 24.1054 44.2929 24.2929C44.1054 24.4804 44 24.7348 44 25V27C44.0016 28.3256 44.5289 29.5964 45.4662 30.5338C46.4036 31.4711 47.6744 31.9984 49 32V33H47C45.6744 33.0016 44.4036 33.5289 43.4662 34.4662C42.5289 35.4036 42.0016 36.6744 42 38V42C42 42.2652 42.1054 42.5196 42.2929 42.7071C42.4804 42.8946 42.7348 43 43 43H61C61.2652 43 61.5196 42.8946 61.7071 42.7071C61.8946 42.5196 62 42.2652 62 42V38C61.9984 36.6744 61.4711 35.4036 60.5338 34.4662C59.5964 33.5289 58.3256 33.0016 57 33ZM56 22H49C47.9391 22 46.9217 21.5786 46.1716 20.8284C45.4214 20.0783 45 19.0609 45 18H54C55.0609 18 56.0783 18.4214 56.8284 19.1716C57.5786 19.9217 58 20.9391 58 22V24L56.8 22.4C56.7069 22.2758 56.5861 22.175 56.4472 22.1056C56.3084 22.0361 56.1552 22 56 22ZM48 35H49.586L50.221 35.635L48 36.523V35ZM54.414 35H56V36.523L53.779 35.635L54.414 35ZM53 32V33.586L52 34.586L51 33.586V32H53ZM44 38C44.0026 37.3817 44.1961 36.7794 44.5541 36.2753C44.9121 35.7712 45.4171 35.3901 46 35.184V38C45.9999 38.1634 46.0399 38.3244 46.1165 38.4687C46.193 38.6131 46.3038 38.7365 46.439 38.8282C46.5743 38.9199 46.73 38.977 46.8925 38.9946C47.055 39.0121 47.2192 38.9896 47.371 38.929L51 37.477V41H44V38ZM60 41H53V37.477L56.629 38.929C56.747 38.9762 56.8729 39.0003 57 39C57.2652 39 57.5196 38.8946 57.7071 38.7071C57.8946 38.5196 58 38.2652 58 38V35.184C58.5829 35.3901 59.0879 35.7712 59.4459 36.2753C59.8039 36.7794 59.9974 37.3817 60 38V41Z" fill="#FBFBFB"/>
<path d="M35 21C33.4178 21 31.871 21.4692 30.5554 22.3482C29.2399 23.2273 28.2145 24.4767 27.609 25.9385C27.0035 27.4003 26.845 29.0089 27.1537 30.5607C27.4624 32.1126 28.2243 33.538 29.3431 34.6569C30.462 35.7757 31.8874 36.5376 33.4393 36.8463C34.9911 37.155 36.5997 36.9965 38.0615 36.391C39.5233 35.7855 40.7727 34.7602 41.6518 33.4446C42.5308 32.129 43 30.5823 43 29C42.9976 26.879 42.154 24.8456 40.6542 23.3458C39.1545 21.846 37.121 21.0024 35 21ZM35 35C33.8133 35 32.6533 34.6481 31.6666 33.9888C30.6799 33.3295 29.9109 32.3925 29.4567 31.2961C29.0026 30.1997 28.8838 28.9933 29.1153 27.8295C29.3468 26.6656 29.9182 25.5965 30.7574 24.7574C31.5965 23.9182 32.6656 23.3468 33.8295 23.1153C34.9933 22.8838 36.1997 23.0026 37.2961 23.4567C38.3925 23.9108 39.3295 24.6799 39.9888 25.6666C40.6481 26.6533 41 27.8133 41 29C40.9984 30.5908 40.3658 32.116 39.2409 33.2409C38.116 34.3658 36.5908 34.9984 35 35Z" fill="#FBFBFB"/>
<path d="M35.0006 24C34.1233 24.0019 33.2618 24.2338 32.5021 24.6724C31.7424 25.1111 31.1109 25.7412 30.6706 26.5C30.551 26.7285 30.5244 26.9944 30.5962 27.2421C30.6681 27.4899 30.8329 27.7002 31.0562 27.8293C31.2795 27.9584 31.544 27.9962 31.7946 27.9348C32.0451 27.8734 32.2622 27.7177 32.4006 27.5C32.7303 26.9271 33.2401 26.4792 33.8506 26.2258C34.4611 25.9724 35.1383 25.9278 35.7768 26.0988C36.4153 26.2698 36.9794 26.647 37.3816 27.1716C37.7837 27.6962 38.0013 28.339 38.0006 29C38.0006 29.2652 38.1059 29.5196 38.2935 29.7071C38.481 29.8946 38.7353 30 39.0006 30C39.2658 30 39.5201 29.8946 39.7077 29.7071C39.8952 29.5196 40.0006 29.2652 40.0006 29C39.999 27.6744 39.4717 26.4036 38.5343 25.4662C37.597 24.5289 36.3262 24.0016 35.0006 24Z" fill="#FBFBFB"/>
<path d="M37.2491 30.9831C36.8535 31.4345 36.3306 31.7556 35.7491 31.9041C35.5127 31.9643 35.3065 32.1089 35.1693 32.3106C35.0321 32.5122 34.9733 32.7571 35.0041 32.999C35.0348 33.241 35.1529 33.4634 35.3361 33.6244C35.5194 33.7853 35.7551 33.8738 35.9991 33.8731C36.0833 33.8731 36.1673 33.8627 36.2491 33.8421C37.2179 33.5931 38.0891 33.0578 38.7491 32.3061C38.9245 32.1072 39.0137 31.8467 38.9971 31.582C38.9805 31.3173 38.8595 31.07 38.6606 30.8946C38.4616 30.7191 38.2012 30.6299 37.9365 30.6465C37.6718 30.6631 37.4245 30.7842 37.2491 30.9831Z" fill="#FBFBFB"/>
</svg>

<svg xmlns="http://www.w3.org/2000/svg" fill="none" width="64" height="64" viewBox="0 0 64 64"><path d="m5.3 55.906 8.117 5.9a1 1 0 0 0 1.176 0l8.117-5.9a8.02 8.02 0 0 0 3.29-6.47V38.002a1 1 0 0 0-1-1c-4.547 0-10.3-4.723-10.362-4.771a1.007 1.007 0 0 0-1.276 0C13.305 32.278 7.547 37 3 37a1 1 0 0 0-1 1v11.437a8.02 8.02 0 0 0 3.3 6.469zM4 38.944c4.076-.45 8.4-3.456 10-4.672 1.6 1.216 5.924 4.222 10 4.672v10.493a6.017 6.017 0 0 1-2.471 4.852L14 59.765l-7.529-5.476A6.018 6.018 0 0 1 4 49.437V38.944z" fill="#FBFBFB"/><path d="M10.706 47.292a1 1 0 0 0-1.414 1.414l3 3a1 1 0 0 0 1.414 0l9-9a1 1 0 0 0-1.414-1.414L13 49.585l-2.293-2.293z" fill="#FBFBFB"/><path d="M14 56a9.01 9.01 0 0 0 9-9 1 1 0 1 0-2 0 7 7 0 1 1-3.5-6.064 1 1 0 0 0 1-1.731A9 9 0 1 0 14 56zM3 18h5.72l-.5 2H6a1 1 0 0 0-1 1v4a1 1 0 0 0 1 1h14a1 1 0 0 0 1-1v-4a1 1 0 0 0-1-1h-2.22l-.5-2H23a1 1 0 0 0 1-1V3a1 1 0 0 0-1-1H3a1 1 0 0 0-1 1v14a1 1 0 0 0 1 1zm16 6H7v-2h12v2zm-3.28-4h-5.44l.5-2h4.44l.5 2zM4 4h18v12H4V4z" fill="#FBFBFB"/><path d="M16.383 6.076a1 1 0 0 0-1.09.217L13 8.586l-2.293-2.293A1 1 0 0 0 9 7v6a1 1 0 1 0 2 0V9.414l1.293 1.293a1 1 0 0 0 1.414 0L15 9.414V13a1 1 0 0 0 2 0V7a1 1 0 0 0-.617-.924zM43 6H27a1 1 0 1 0 0 2h15v2.586l-1.293-1.293a1 1 0 0 0-1.414 1.414l3 3a1 1 0 0 0 1.414 0l3-3a1 1 0 0 0-1.414-1.414L44 10.586V7a1 1 0 0 0-1-1zm0 46v-6a1 1 0 0 0-2 0v5h-9.586l1.293-1.293a1 1 0 0 0-1.414-1.414l-3 3a1 1 0 0 0 0 1.414l3 3a1 1 0 0 0 1.414-1.414L31.414 53H42a1 1 0 0 0 1-1zm14-19h-2v-1a5 5 0 0 0 4.984-4.841v-.047c0-.038.011-.074.011-.112v-5a6.006 6.006 0 0 0-6-6H45a2 2 0 0 0-2 2 6.006 6.006 0 0 0 6 6h6.5l2.47 3.293A2.993 2.993 0 0 1 55 30h-6a3 3 0 0 1-3-3v-2a1 1 0 0 0-2 0v2a5.006 5.006 0 0 0 5 5v1h-2a5.006 5.006 0 0 0-5 5v4a1 1 0 0 0 1 1h18a1 1 0 0 0 1-1v-4a5.006 5.006 0 0 0-5-5zm-1-11h-7a4 4 0 0 1-4-4h9a4 4 0 0 1 4 4v2l-1.2-1.6a.999.999 0 0 0-.8-.4zm-8 13h1.586l.635.635-2.221.888V35zm6.414 0H56v1.523l-2.221-.888.635-.635zM53 32v1.586l-1 1-1-1V32h2zm-9 6a3 3 0 0 1 2-2.816V38a.998.998 0 0 0 1.371.929L51 37.477V41h-7v-3zm16 3h-7v-3.523l3.629 1.452A1 1 0 0 0 58 38v-2.816A3 3 0 0 1 60 38v3z" fill="#FBFBFB"/><path d="M35 21a8 8 0 1 0 8 8 8.009 8.009 0 0 0-8-8zm0 14a6 6 0 1 1 0-12 6 6 0 0 1 0 12z" fill="#FBFBFB"/><path d="M35 24a5.019 5.019 0 0 0-4.33 2.5 1 1 0 0 0 1.73 1A3 3 0 0 1 38 29a1 1 0 1 0 2 0 5.006 5.006 0 0 0-5-5zm2.25 6.983a2.973 2.973 0 0 1-1.5.921 1 1 0 1 0 .5 1.938 4.975 4.975 0 0 0 2.5-1.536 1 1 0 0 0-1.5-1.323z" fill="#FBFBFB"/></svg>
